X:1
T:Allmächtiger Gott, LM
T:Allmächtiger Gott, LM
T:Johann Crüger, 1640
T:Public Domain Courtesy of the Cyber Hymnal™
C:Johann Crüger, 1640
Z:Public Domain
Z:Courtesy of the Cyber Hymnal™
%%score ( 1 2 ) ( 3 4 )
L:1/8
Q:1/4=110
M:4/4
K:D
V:1 treble 
V:2 treble 
V:3 bass 
V:4 bass 
V:1
 [A,D]2 [B,D]2 [CE]2 [DF]2 | [DA]2 [DG]2 [DF]2 [CE]2- | [CE]4 [FA]2 [Fd]2 | %3
 [Fc]2 [FB]2 [EA]2 [FA]2 | [E^G]2 [EA]6 | [EA]2 [DF]2 [DA]2 [DB]2 | [DA]2 [DG]2 [EG]2 [CF]2- | %7
 [CF]4 E2 [DF]2 | [D^G]2 [EA]2 D2 [DF]2- x2 | [DF]2 [CE]4 [A,D]2- | [A,D]6 z2 |] %11
V:2
 x8 | x8 | x8 | x8 | x8 | x8 | x8 | x4 E2 x2 | x4 D2 x4 | x8 | x8 |] %11
V:3
 [D,F,]2 [B,,F,]2 [A,,A,]2 [D,A,]2 | [F,,A,]2 [G,,B,]2 [D,A,]2 [A,,A,]2- | %2
 [A,,A,]4 [F,,C]2 [B,,B,]2 | [^A,,C]2 [B,,D]2 [C,C]2 [D,B,]2 | [E,B,]2 [A,,C]6 | %5
 [C,A,]2 [D,A,]2 [F,A,]2 G,2 | [D,F,]2 [B,,B,]2 [E,B,]2 [F,^A,]2- | [F,A,]4 [C,=A,]2 [D,A,]2 | %8
 [B,,B,]2 [A,,C]2 [B,,F,]2 A,4 | G,,2 (A,2 G,2) [D,F,]2- | [D,F,]6 z2 |] %11
V:4
 x8 | x8 | x8 | x8 | x8 | x6 G,2 | x8 | x8 | x6 F,,2 x2 | x2 A,,4 x2 | x8 |] %11

